plasma/desktoptheme/Materia/icons/bookmarks.svg

<svg xmlns="http://www.w3.org/2000/svg" width="32" height="32" version="1.1">
 <g id="bookmarks">
  <rect style="opacity:0.001" width="32" height="32" x="0" y="0"/>
  <path style="opacity:0.2" d="M 9.9570312,3 C 5.5629266,3 2,7.1162801 2,12.193359 c 0,1.364118 0.2089286,2.676126 0.5742188,3.929688 0,0 0.3315681,1.131263 0.625,1.753906 C 6.5528776,25.837929 16,31 16,31 c 0,0 9.447122,-5.162071 12.800781,-13.123047 0.293432,-0.622643 0.625,-1.753906 0.625,-1.753906 C 29.791071,14.869485 30,13.557477 30,12.193359 30,7.1162801 26.437073,3 22.042969,3 19.738504,3 17.453413,4.1910383 16,6 14.546587,4.1910383 12.261496,3 9.9570312,3 Z"/>
  <path style="fill:#c2352a" d="M 9.9570312 2 C 5.5629266 2 2 6.1162801 2 11.193359 C 2 12.557477 2.2089286 13.869485 2.5742188 15.123047 C 2.5742188 15.123047 2.9057869 16.25431 3.1992188 16.876953 C 6.5528776 24.837929 16 30 16 30 C 16 30 25.447122 24.837929 28.800781 16.876953 C 29.094213 16.25431 29.425781 15.123047 29.425781 15.123047 C 29.791071 13.869485 30 12.557477 30 11.193359 C 30 6.1162801 26.437073 2 22.042969 2 C 19.738504 2 17.453413 3.1910383 16 5 C 14.546587 3.1910383 12.261496 2 9.9570312 2 z"/>
  <path style="fill:#ffffff;opacity:0.2" d="M 9.9570312 2 C 5.5629267 2 2 6.1162805 2 11.193359 C 2 11.372076 2.0124773 11.547696 2.0195312 11.724609 C 2.2322298 6.8668695 5.699945 3 9.9570312 3 C 12.261496 3 14.546587 4.1910383 16 6 C 17.453413 4.1910383 19.738504 3 22.042969 3 C 26.300054 3 29.76777 6.8668695 29.980469 11.724609 C 29.987523 11.547696 30 11.372076 30 11.193359 C 30 6.1162805 26.437073 2 22.042969 2 C 19.738504 2 17.453413 3.1910383 16 5 C 14.546587 3.1910383 12.261496 2 9.9570312 2 z"/>
 </g>
</svg>

<?xml version="1.0" encoding="UTF-8"?>
<svg width="32" height="32" version="1.1" xmlns="http://www.w3.org/2000/svg">
 <g id="bookmarks">
  <rect width="32" height="32" opacity=".001"/>
  <path d="m9.957 3c-4.3941 0-7.957 4.1163-7.957 9.1934 0 1.3641 0.20893 2.6761 0.57422 3.9297 0 0 0.33157 1.1313 0.625 1.7539 3.3537 7.961 12.801 13.123 12.801 13.123s9.4471-5.1621 12.801-13.123c0.29343-0.62264 0.625-1.7539 0.625-1.7539 0.36529-1.2536 0.57422-2.5656 0.57422-3.9297 0-5.0771-3.5629-9.1934-7.957-9.1934-2.3045 0-4.5896 1.191-6.043 3-1.4534-1.809-3.7385-3-6.043-3z" opacity=".2"/>
  <path d="m9.957 2c-4.3941 0-7.957 4.1163-7.957 9.1934 0 1.3641 0.20893 2.6761 0.57422 3.9297 0 0 0.33157 1.1313 0.625 1.7539 3.3537 7.961 12.801 13.123 12.801 13.123s9.4471-5.1621 12.801-13.123c0.29343-0.62264 0.625-1.7539 0.625-1.7539 0.36529-1.2536 0.57422-2.5656 0.57422-3.9297 0-5.0771-3.5629-9.1934-7.957-9.1934-2.3045 0-4.5896 1.191-6.043 3-1.4534-1.809-3.7385-3-6.043-3z" fill="#c2352a"/>
  <path d="m9.957 2c-4.3941 0-7.957 4.1163-7.957 9.1934 0 0.17872 0.012477 0.35434 0.019531 0.53125 0.2127-4.8577 3.6804-8.7246 7.9375-8.7246 2.3045 0 4.5896 1.191 6.043 3 1.4534-1.809 3.7385-3 6.043-3 4.2571 0 7.7248 3.8669 7.9375 8.7246 0.007054-0.17691 0.019531-0.35253 0.019531-0.53125 0-5.0771-3.5629-9.1934-7.957-9.1934-2.3045 0-4.5896 1.191-6.043 3-1.4534-1.809-3.7385-3-6.043-3z" fill="#fff" opacity=".2"/>
 </g>
</svg>
